X:0457
T:The Life we love.
Z:vaguely related to Hit Her Upon the Bum
M:6/8
L:1/8
Q:3/8=120
I: :: ::
Z:Jack Campin * www.campin.me.uk * 2009
K:G
D|G2d dcB|c2e efg|dBg dBG|TA2G  G2
D|GBd dBG|E2e efg|dBg dBG| A2G  G2::
f|g2f eag|f2e dgf|e2d BAB| dBd He2
g|G2d dcB|c2e efg|dBg dBG| A2G  G2:|

